img/home/icons/icon-6.svg

<svg height="59" viewBox="0 0 70 59" width="70" xmlns="http://www.w3.org/2000/svg" xmlns:xlink="http://www.w3.org/1999/xlink"><mask id="a" fill="#fff"><path d="m.00035897.00026818h69.78292223v58.87922882h-69.78292223z" fill="#fff" fill-rule="evenodd"/></mask><path d="m46.4292051 20.2873288-28.9961538-.0026818c-1.2465385 0-2.4302564.5015-3.3303846 1.4106363-.6982052.708-1.1603846 1.6046212-1.3353846 2.5933182h-.0816667l.0008974 17.1609546.0098718.1975606c.0628205 1.2005606.5626923 2.3331818 1.4071795 3.1877878.9019231.9100303 2.0847436 1.4097425 3.3294872 1.4097425l25.3974359-.0026818c.2629487 0 .5115384.0947575.7053846.2672878l.0367949.0375455c.1974359.1975606.3060256.4603788.3060256.7392879v5.4700151c0 .2547727-.0879487.4943485-.251282.6820758l-.0547436.0536363c-.2001282.1984546-.4639744.3075152-.7421795.3075152l-27.9282051.0044697c-2.6573077-.1197879-5.13333338-1.195197-6.9712821-3.0286667-1.82807692-1.8218485-2.83410256-4.2283333-2.83410256-6.7760606v-21.4688485c0-2.5504091 1.00602564-4.9568939 2.83320512-6.7787424 1.82807693-1.8182727 4.27717954-2.8901061 6.90846154-3.0224091h31.590641c1.4053846 0 2.5496154-1.1388788 2.5496154-2.5396818v-2.88474243l13.7083333 9.19237883-13.7083333 9.1923787v-2.8623939c0-1.400803-1.1442308-2.5396818-2.5496154-2.5396818m22.2285898-5.8964243-20.6392308-13.83371208c-.4487179-.36025757-1.0132051-.55692424-1.589359-.55692424-1.406282 0-2.5505128 1.13887879-2.5505128 2.53968182v5.10975758h-28.9414102l-.8364103.00536363v.04559091c-3.724359.2994697-7.1723077 1.8674394-9.7748718 4.46075758-2.78923077 2.7783636-4.32564103 6.4613939-4.32564103 10.368803v21.4688485c0 3.9074091 1.53641026 7.5895455 4.32474359 10.3661212 2.73538462 2.7256212 6.41397434 4.3239849 10.31423074 4.4974091.0978205.0107273.1974359.0169849.2979488.0169849h27.8932051c1.6378205 0 3.1796154-.6373788 4.3426923-1.7941364l.3984615-.4058485-.0107692-.0250303c.9180769-1.0986515 1.4179487-2.462803 1.4179487-3.8984697v-5.4700151c0-1.6260758-.6407692-3.1600758-1.8110256-4.3275606-1.1621795-1.1585455-2.7021795-1.7950303-4.3373077-1.7950303h-25.0447436v-15.7994849l26.0929487.0035758.0053846 5.9205606h.1408975c.07.2020303.1678205.3969091.2898718.5792727.7834615 1.1594394 2.3674359 1.4678485 3.5296153.6901212l20.7783334-13.9338333c.2907692-.1877273.5357692-.4290909.7305128-.7169394.7807692-1.1603334.4684615-2.7381364-.6955128-3.5158637" fill="#ff5722" fill-rule="evenodd" mask="url(#a)"/></svg>

<?xml version="1.0" encoding="UTF-8"?>
<svg width="70px" height="59px" viewBox="0 0 70 59" version="1.1" xmlns="http://www.w3.org/2000/svg" xmlns:xlink="http://www.w3.org/1999/xlink">
    <!-- Generator: Sketch 51.3 (57544) - http://www.bohemiancoding.com/sketch -->
    <title>icon-6</title>
    <desc>Created with Sketch.</desc>
    <defs>
        <polygon id="path-1" points="0.000358974359 0.000268181818 69.7832812 0.000268181818 69.7832812 58.879497 0.000358974359 58.879497"></polygon>
    </defs>
    <g id="Home-&amp;-Quote" stroke="none" stroke-width="1" fill="none" fill-rule="evenodd">
        <g id="TT-Home-01" transform="translate(-531.000000, -5259.000000)">
            <g id="icon-6" transform="translate(531.000000, 5259.000000)">
                <mask id="mask-2" fill="white">
                    <use xlink:href="#path-1"></use>
                </mask>
                <g id="Clip-2"></g>
                <path d="M46.4292051,20.2873288 L17.4330513,20.284647 C16.1865128,20.284647 15.0027949,20.786147 14.1026667,21.6952833 C13.4044615,22.4032833 12.9422821,23.2999045 12.7672821,24.2886015 L12.6856154,24.2886015 L12.6865128,41.4495561 L12.6963846,41.6471167 C12.7592051,42.8476773 13.2590769,43.9802985 14.1035641,44.8349045 C15.0054872,45.7449348 16.1883077,46.244647 17.4330513,46.244647 L42.8304872,46.2419652 C43.0934359,46.2419652 43.3420256,46.3367227 43.5358718,46.509253 L43.5726667,46.5467985 C43.7701026,46.7443591 43.8786923,47.0071773 43.8786923,47.2860864 L43.8786923,52.7561015 C43.8786923,53.0108742 43.7907436,53.25045 43.6274103,53.4381773 L43.5726667,53.4918136 C43.3725385,53.6902682 43.1086923,53.7993288 42.8304872,53.7993288 L14.9022821,53.8037985 C12.2449744,53.6840106 9.76894872,52.6086015 7.931,50.7751318 C6.10292308,48.9532833 5.09689744,46.5467985 5.09689744,43.9990712 L5.09689744,22.5302227 C5.09689744,19.9798136 6.10292308,17.5733288 7.93010256,15.7514803 C9.75817949,13.9332076 12.2072821,12.8613742 14.8385641,12.7290712 L46.4292051,12.7290712 C47.8345897,12.7290712 48.9788205,11.5901924 48.9788205,10.1893894 L48.9788205,7.30464697 L62.6871538,16.4970258 L48.9788205,25.6894045 L48.9788205,22.8270106 C48.9788205,21.4262076 47.8345897,20.2873288 46.4292051,20.2873288 M68.6577949,14.3909045 L48.0185641,0.557192424 C47.5698462,0.196934848 47.005359,0.000268181818 46.4292051,0.000268181818 C45.0229231,0.000268181818 43.8786923,1.13914697 43.8786923,2.53995 L43.8786923,7.64970758 L14.9372821,7.64970758 L14.1008718,7.65507121 L14.1008718,7.70066212 C10.3765128,8.00013182 6.9285641,9.56810152 4.326,12.1614197 C1.53676923,14.9397833 0.000358974359,18.6228136 0.000358974359,22.5302227 L0.000358974359,43.9990712 C0.000358974359,47.9064803 1.53676923,51.5886167 4.32510256,54.3651924 C7.06048718,57.0908136 10.7390769,58.6891773 14.6393333,58.8626015 C14.7371538,58.8733288 14.8367692,58.8795864 14.9372821,58.8795864 L42.8304872,58.8795864 C44.4683077,58.8795864 46.0101026,58.2422076 47.1731795,57.08545 L47.571641,56.6796015 L47.5608718,56.6545712 C48.4789487,55.5559197 48.9788205,54.1917682 48.9788205,52.7561015 L48.9788205,47.2860864 C48.9788205,45.6600106 48.3380513,44.1260106 47.1677949,42.9585258 C46.0056154,41.7999803 44.4656154,41.1634955 42.8304872,41.1634955 L17.7857436,41.1634955 L17.7857436,25.3640106 L43.8786923,25.3675864 L43.8840769,31.288147 L44.0249744,31.288147 C44.0949744,31.4901773 44.1927949,31.6850561 44.3148462,31.8674197 C45.0983077,33.0268591 46.6822821,33.3352682 47.8444615,32.5575409 L68.6227949,18.6237076 C68.9135641,18.4359803 69.1585641,18.1946167 69.3533077,17.9067682 C70.1340769,16.7464348 69.8217692,15.1686318 68.6577949,14.3909045" id="Fill-1" fill="#FF5722" mask="url(#mask-2)"></path>
            </g>
        </g>
    </g>
</svg>
